X:1
T:Partita III Burlesca
T:BWV 827
T:J. S. Bach
%%score { ( 1 3 ) | ( 2 4 ) }
L:1/8
M:3/4
K:C
V:1 treble nm="Harp"
V:3 treble 
V:2 bass 
V:4 bass 
V:1
 AB c/4B/4c/4B/4A/B/ c^G | A/4^G/4A3/2 E2 A2 | Bc d/4c/4d/4c/4B/c/ dA | B/4A/4B3/2 e2 d2 | %4
 d/c/B/c/- [cf]2 [Be]2 | B/A/^G/A/- [Ad]2 [=Gc]2 | z/ B/A/^G/ A/B/c/d/ e/d/e/f/ | %7
 A/4^G/4A/4G/4A/4G/4A/4G/4 A/4G/4A/4G/4 ^F E2 | c6- | c/c/B/c/ d/c/B/c/ a/c/B/c/ | d6- | %11
 d/d/c/d/ e/d/c/d/ b/d/c/d/ | e2 ^f^g ab | c'/a/g/a/ b/g/^f/g/ a/f/e/f/ | g/e/^d/e/ ^f2 d2 | e6 | %16
 AB c/4B/4c/4B/4A/B/ c^G | A/4^G/4A3/2 E2 A2 | Bc d/4c/4d/4c/4B/c/ dA | B/4A/4B3/2 e2 d2 | %20
 d/c/B/c/- [cf]2 [Be]2 | B/A/^G/A/- [Ad]2 [=Gc]2 | z/ B/A/^G/ A/B/c/d/ e/d/e/f/ | %23
 A/4^G/4A/4G/4A/4G/4A/4G/4 A/4G/4A/4G/4 ^F E2 | c6- | c/c/B/c/ d/c/B/c/ a/c/B/c/ | d6- | %27
 d/d/c/d/ e/d/c/d/ b/d/c/d/ | e2 ^f^g ab | c'/a/g/a/ b/g/^f/g/ a/f/e/f/ | g/e/^d/e/ ^f2 d2 | e6 | %32
 Bc d/4c/4d/4c/4[BB]/c/ dB | FE FD EB | ^cd e/4d/4e/4d/4c/d/ ec | _BA BG Ag | f/d/^c/d/ _b2 a2 | %37
 e/d/^c/d/- [dg]2 [=cf-]2 | fe fe d^c | d6 | f6- | f/d/A/B/ c/B/A/B/ d/B/A/B/ | e6- | %43
 e/c/^G/A/ B/A/G/A/ c/A/G/A/ | d/e/f- f/e/d/c/ d/c/B/A/ | B/c/d- d/c/B/A/ B/A/^G/^F/ | %46
 E/^G/^F/E/ A/c/B/A/ d/c/B/A/ | ed/c/ B/A/^G/^F/ E/D/C/B,/ | z/ E/D/E/ ^F/E/D/E/ G/E/D/E/ | %49
 z/ ^F/E/F/ ^G/F/E/F/ A/F/E/F/ | z/ ^G/^F/G/ A/G/F/G/ B/G/F/G/ | z/ A/^G/A/ B/A/G/A/ ^c/A/G/A/ | %52
 d/A/^G/A/ e/A/G/A/ ^e2- | e/d/c/d/ =e/c/B/c/ d/B/A/B/ | c/A/^G/A/ B2 G2 | A6 | %56
 Bc d/4c/4d/4c/4[BB]/c/ dB | FE FD EB | ^cd e/4d/4e/4d/4c/d/ ec | _BA BG Ag | f/d/^c/d/ _b2 a2 | %61
 e/d/^c/d/- [dg]2 [=cf-]2 | fe fe d^c | d6 | f6- | f/d/A/B/ c/B/A/B/ d/B/A/B/ | e6- | %67
 e/c/^G/A/ B/A/G/A/ c/A/G/A/ | d/e/f- f/e/d/c/ d/c/B/A/ | B/c/d- d/c/B/A/ B/A/^G/^F/ | %70
 E/^G/^F/E/ A/c/B/A/ d/c/B/A/ | ed/c/ B/A/^G/^F/ E/D/C/B,/ | z/ E/D/E/ ^F/E/D/E/ G/E/D/E/ | %73
 z/ ^F/E/F/ ^G/F/E/F/ A/F/E/F/ | z/ ^G/^F/G/ A/G/F/G/ B/G/F/G/ | z/ A/^G/A/ B/A/G/A/ ^c/A/G/A/ | %76
 d/A/^G/A/ e/A/G/A/ ^e2- | e/d/c/d/ =e/c/B/c/ d/B/A/B/ | c/A/^G/A/ B2 G2 | !fermata!A6 |] %80
V:2
 [A,,C,E,A,]2 z4 | A,B, C/4B,/4C/4B,/4A,/B,/ CA, | ^G,2 A,2 F,2 | %3
 E,^F, G,/4F,/4G,/4F,/4E,/F,/ ^G,E, | %4
 A,A,, z/[I:staff -1] A/G/F/[I:staff +1] z/[I:staff -1] G/F/E/ | %5
[I:staff +1] FF, z/[I:staff -1] F/E/D/[I:staff +1] z/[I:staff -1] E/D/C/ | %6
 D[I:staff +1]B, CA,/B,/ CD | EF ED CB, | A,A,, z/ A,/G,/F,/ E,/G,/E,/C,/ | F,F,, A,G, G,^F, | %10
 ^F,^F,, z/ F,/G,/A,/ G,/F,/E,/D,/ | G,G,, B,A, A,^G, | ^G,/F/E/D/ C/E/D/C/ B,/D/C/B,/ | %13
 A,2 G,2 ^F,2 | E,^F,/G,/ A,,2 B,,2 | E,,B,, E,D, C,B,, | [A,,C,E,A,]2 z4 | %17
 A,B, C/4B,/4C/4B,/4A,/B,/ CA, | ^G,2 A,2 F,2 | E,^F, G,/4F,/4G,/4F,/4E,/F,/ ^G,E, | %20
 A,A,, z/[I:staff -1] A/G/F/[I:staff +1] z/[I:staff -1] G/F/E/ | %21
[I:staff +1] FF, z/[I:staff -1] F/E/D/[I:staff +1] z/[I:staff -1] E/D/C/ | %22
 D[I:staff +1]B, CA,/B,/ CD | EF ED CB, | A,A,, z/ A,/G,/F,/ E,/G,/E,/C,/ | F,F,, A,G, G,^F, | %26
 ^F,^F,, z/ F,/G,/A,/ G,/F,/E,/D,/ | G,G,, B,A, A,^G, | ^G,/F/E/D/ C/E/D/C/ B,/D/C/B,/ | %29
 A,2 G,2 ^F,2 | E,^F,/G,/ A,,2 B,,2 | E,,2 B,,2 E,2 | E,4 z2 | ^G,2 G,2 G,2 | G,4 z2 | ^C2 C2 C2 | %36
 DD, z/[I:staff -1] d/c/_B/[I:staff +1] z/[I:staff -1] c/B/A/ | %37
 _B_B,[I:staff +1] z/[I:staff -1] B/A/G/[I:staff +1] z/[I:staff -1] A/G/F/ | %38
 G[I:staff +1]G, A,2 A,,2 | D,A,,/G,,/ F,,/G,,/A,, D,,2 | z/ D,/E,/F,/ G,/A,/B,/^C/ D/E/F/D/ | %41
 GD G,D, G,,2 | z/ C,/D,/E,/ F,/G,/A,/B,/ C/D/E/C/ | FC F,C, F,,2 | z B,, C,D, E,^F, | %45
 ^G,E, ^F,G, A,B, | CB, CD ^G,A, | ^G,/A,/B,- B,/A,/G,/^F,/ E,/D,/C,/B,,/ | C,C B,C, ^C,A, | %49
 D,D CD, ^D,B, | E,E DE, F,D | CB, A,F G,E | F,D E,^C D,2- | D,2 C,2 B,,2 | A,,B,,/C,/ D,,2 E,,2 | %55
 z2 E,2 A,2 | E,4 z2 | ^G,2 G,2 G,2 | G,4 z2 | ^C2 C2 C2 | %60
 DD, z/[I:staff -1] d/c/_B/[I:staff +1] z/[I:staff -1] c/B/A/ | %61
 _B_B,[I:staff +1] z/[I:staff -1] B/A/G/[I:staff +1] z/[I:staff -1] A/G/F/ | %62
 G[I:staff +1]G, A,2 A,,2 | D,A,,/G,,/ F,,/G,,/A,, D,,2 | z/ D,/E,/F,/ G,/A,/B,/^C/ D/E/F/D/ | %65
 GD G,D, G,,2 | z/ C,/D,/E,/ F,/G,/A,/B,/ C/D/E/C/ | FC F,C, F,,2 | z B,, C,D, E,^F, | %69
 ^G,E, ^F,G, A,B, | CB, CD ^G,A, | ^G,/A,/B,- B,/A,/G,/^F,/ E,/D,/C,/B,,/ | C,C B,C, ^C,A, | %73
 D,D CD, ^D,B, | E,E DE, F,D | CB, A,F G,E | F,D E,^C D,2- | D,2 C,2 B,,2 | A,,B,,/C,/ D,,2 E,,2 | %79
 z2 E,2 !fermata!A,2 |] %80
V:3
 x6 | x6 | x6 | x6 | x6 | x6 | F2 E2 z2 | x6 | z E/F/ G/4F/4G/4F/4G/4F/4E/4F/4 GC | A2 z2 z2 | %10
 z A/B/ c/4B/4c/4B/4c/4B/4A/4B/4 cF | x6 | z ^G AB cd | e[I:staff +1] ^F2 E2 ^D | %14
 E2[I:staff -1] z c2 B | A2 ^G4 | x6 | x6 | x6 | x6 | x6 | x6 | F2 E2 z2 | x6 | %24
 z E/F/ G/4F/4G/4F/4G/4F/4E/4F/4 GC | A2 z2 z2 | z A/B/ c/4B/4c/4B/4c/4B/4A/4B/4 cF | x6 | %28
 z ^G AB cd | e[I:staff +1] ^F2 E2 ^D | E2[I:staff -1] z c2 B | A2 ^G4 | %32
[I:staff +1] ^G,A, B,/4A,/4B,/4A,/4G,/A,/ B,[I:staff -1] z |[I:staff +1] B,2 B,2 B,2 | %34
[I:staff -1] EF G/4F/4G/4F/4E/F/ G z |[I:staff +1] E2 E2 E2 | D2[I:staff -1] f2 e2 | x6 | %38
 _B2 AG FE | F6 | z d ^cd Ad- | d z z4 | z c Bc Gc- | c z z4 | x6 | x6 | x6 | x6 | x6 | x6 | x6 | %51
 x6 | z4 z[I:staff +1] D | ^G, B,2 A,2 G, | A,2[I:staff -1] z F2 E | D2 C4 | %56
[I:staff +1] ^G,A, B,/4A,/4B,/4A,/4G,/A,/ B,[I:staff -1] z |[I:staff +1] B,2 B,2 B,2 | %58
[I:staff -1] EF G/4F/4G/4F/4E/F/ G z |[I:staff +1] E2 E2 E2 | D2[I:staff -1] f2 e2 | x6 | %62
 _B2 AG FE | F6 | z d ^cd Ad- | d z z4 | z c Bc Gc- | c z z4 | x6 | x6 | x6 | x6 | x6 | x6 | x6 | %75
 x6 | z4 z[I:staff +1] D | ^G, B,2 A,2 G, | A,2[I:staff -1] z F2 E | D2 !fermata!C4 |] %80
V:4
 x6 | x6 | x6 | x6 | x6 | x6 | x6 | x6 | x6 | x6 | x6 | x6 | x6 | x6 | x6 | x6 | x6 | x6 | x6 | %19
 x6 | x6 | x6 | x6 | x6 | x6 | x6 | x6 | x6 | x6 | x6 | x6 | x6 | x6 | x6 | x6 | x6 | x6 | x6 | %38
 x6 | x6 | x6 | x6 | x6 | x6 | x6 | x6 | x6 | x6 | x6 | x6 | x6 | x6 | x6 | x6 | x6 | A,,6 | x6 | %57
 x6 | x6 | x6 | x6 | x6 | x6 | x6 | x6 | x6 | x6 | x6 | x6 | x6 | x6 | x6 | x6 | x6 | x6 | x6 | %76
 x6 | x6 | x6 | !fermata!A,,6 |] %80

